src/lib/packages/icons/src/assets/filled/candy.svg

<svg width="24" height="24" viewBox="0 0 24 24" fill="none" xmlns="http://www.w3.org/2000/svg">
<path d="M11.5001 6.76019V17.2402C11.5001 17.3602 11.3901 17.4602 11.2701 17.4402C10.6801 17.3702 10.1301 17.2002 9.61008 16.9402C9.54008 16.9102 9.50009 16.8302 9.50009 16.7502V7.23019C9.50009 7.15019 9.54008 7.08019 9.61008 7.04019C10.1201 6.79019 10.6801 6.62019 11.2701 6.54019C11.3901 6.52019 11.5001 6.62017 11.5001 6.74017V6.76019ZM14.3901 7.05017C13.8801 6.80017 13.3201 6.63017 12.7301 6.55017C12.6101 6.53017 12.5001 6.63018 12.5001 6.75018V17.2302C12.5001 17.3502 12.6101 17.4502 12.7301 17.4302C13.3201 17.3602 13.8701 17.1902 14.3901 16.9302C14.4601 16.9002 14.5001 16.8202 14.5001 16.7402V7.22018C14.5001 7.14018 14.4601 7.07018 14.3901 7.03018V7.05017ZM8.50009 15.9802V8.16018C8.50009 7.88018 8.35009 7.89019 8.28009 7.95019C7.19009 8.95019 6.50009 10.3902 6.50009 12.0002C6.50009 12.9602 6.7501 13.8602 7.1901 14.6502C5.8801 14.2702 4.58008 14.6802 3.58008 15.2102C2.74008 15.6602 2.83008 16.8602 3.74008 17.1602L3.80008 17.1802C4.25008 17.3302 4.5401 17.7302 4.5401 18.1902C4.5401 18.7702 5.0301 19.2502 5.6301 19.2502C6.0901 19.2502 6.51009 19.5402 6.65009 19.9702L6.7601 20.2702C7.0401 21.1002 8.15011 21.2602 8.67011 20.5502C9.37011 19.6002 9.77009 18.4302 9.28009 16.7702L8.50009 15.9802ZM20.2601 6.84017L20.2001 6.82019C19.7501 6.67019 19.4601 6.27018 19.4601 5.81018C19.4601 5.23018 18.9701 4.75018 18.3701 4.75018C17.9101 4.75018 17.4901 4.46018 17.3501 4.03018L17.2401 3.73019C16.9601 2.90019 15.8501 2.74019 15.3301 3.45019C14.6301 4.40019 14.2301 5.57019 14.7201 7.23019L15.5001 8.02017V15.8502C15.5001 16.1102 15.6801 16.0902 15.7701 16.0102C16.8301 15.0102 17.5001 13.5902 17.5001 12.0102C17.5001 11.0502 17.2501 10.1502 16.8101 9.36016C18.1201 9.74016 19.4201 9.33017 20.4201 8.80017C21.2601 8.35017 21.1701 7.15018 20.2601 6.85018V6.84017Z" fill="currentColor"/>
</svg>

<svg xmlns="http://www.w3.org/2000/svg" width="24" height="24" fill="none"><path fill="currentColor" d="M11.5 6.76v10.48c0 .12-.11.22-.23.2-.59-.07-1.14-.24-1.66-.5-.07-.03-.11-.11-.11-.19V7.23c0-.08.04-.15.11-.19.51-.25 1.07-.42 1.66-.5.12-.02.23.08.23.2v.02Zm2.89.29c-.51-.25-1.07-.42-1.66-.5a.203.203 0 0 0-.23.2v10.48c0 .12.11.22.23.2.59-.07 1.14-.24 1.66-.5.07-.03.11-.11.11-.19V7.22c0-.08-.04-.15-.11-.19v.02ZM8.5 15.98V8.16c0-.28-.15-.27-.22-.21a5.478 5.478 0 0 0-1.09 6.7c-1.31-.38-2.61.03-3.61.56-.84.45-.75 1.65.16 1.95l.06.02c.45.15.74.55.74 1.01 0 .58.49 1.06 1.09 1.06.46 0 .88.29 1.02.72l.11.3c.28.83 1.39.99 1.91.28.7-.95 1.1-2.12.61-3.78l-.78-.79Zm11.76-9.14-.06-.02a1.06 1.06 0 0 1-.74-1.01c0-.58-.49-1.06-1.09-1.06-.46 0-.88-.29-1.02-.72l-.11-.3c-.28-.83-1.39-.99-1.91-.28-.7.95-1.1 2.12-.61 3.78l.78.79v7.83c0 .26.18.24.27.16 1.06-1 1.73-2.42 1.73-4 0-.96-.25-1.86-.69-2.65 1.31.38 2.61-.03 3.61-.56.84-.45.75-1.65-.16-1.95v-.01Z"/></svg>
